src/assets/logos/v2/ftuk.svg

<svg width="872" height="251" viewBox="0 0 872 251" fill="none" xmlns="http://www.w3.org/2000/svg">
<g clip-path="url(#clip0_7_7)">
<path d="M52.1257 251V164.159H168.51V113.787H56.4572C56.4572 113.787 42.5521 69.4925 91.2076 52.1194H247.561V251H303.156V52.1194H384.815L434.308 0H96.4252C96.4252 0 8.68762 5.21686 0 99.022V251H52.1257Z" fill="white"/>
<path d="M434.297 0H489.031V153.726C489.031 153.726 496.858 203.236 550.706 199.767C604.555 196.297 613.242 164.159 613.242 146.786V0H670.56V158.081C670.56 158.081 668.813 244.061 552.429 251C449.063 251 434.297 165.021 434.297 165.021V0Z" fill="white"/>
<path d="M795.642 0H867.751L741.793 125.5L872.083 251H794.78L670.569 125.943L795.642 0Z" fill="white"/>
</g>
<defs>
<clipPath id="clip0_7_7">
<rect width="872" height="251" fill="white"/>
</clipPath>
</defs>
</svg>

<svg xmlns="http://www.w3.org/2000/svg" width="872" height="251" fill="none" viewBox="0 0 872 251"><g fill="#fff" clip-path="url(#a)"><path d="M52.126 251v-86.841H168.51v-50.372H56.457s-13.905-44.294 34.75-61.668h156.354V251h55.595V52.12h81.659L434.308 0H96.425S8.688 5.217 0 99.022V251z"/><path d="M434.297 0h54.734v153.726s7.827 49.51 61.675 46.041 62.536-35.608 62.536-52.981V0h57.318v158.081s-1.747 85.98-118.131 92.919c-103.366 0-118.132-85.979-118.132-85.979zm361.345 0h72.109L741.793 125.5 872.083 251H794.78L670.569 125.943z"/></g><defs><clipPath id="a"><path fill="#fff" d="M0 0h872v251H0z"/></clipPath></defs></svg>
